X:1
T:Sonata No. 14 “Moonlight”
T:Sonata No. 14 “Moonlight”
T:Op. 27 No. 2, 1st Movement - Arranged for Guitar Duo
T:Ludwig van Beethoven
T:Arr: F. Tárrega, J. J. Olson
C:Ludwig van Beethoven
%%score [ ( 1 2 ) ( 3 4 ) ]
L:1/8
Q:1/4=70
M:4/4
K:F
V:1 treble transpose=-12 nm="Chitarra I"
V:2 treble transpose=-12 
V:3 treble transpose=-12 nm="Chitarra II"
V:4 treble transpose=-12 
V:1
"^Adagio sostenuto""^VI" (3Adf (3Adf (3Adf (3Adf | (3Adf (3Adf (3Adf (3Adf | %2
"^(VI)" (3Bdf"^b-VIII" (3Bdf (3B_eg (3Beg |"^VI" (3A_dg (3A=df (3Ad"^b-V"e (3G_de | %4
"^VI""^A" (3FAd (3Adf (3Adf (3Adf |"^(VI)" (3Aeg (3Aeg (3Aeg (3Aeg | (3Adf (3Adf (3Bdg (3Bdg | %7
"^V" (3Acf (3Acf"^b-III" (3GBe (3Beg |"^V" (3Acf (3Acf (3Acf (3Acf |"^B" (3_Acf (3Acf (3Acf (3Acf | %10
 (3_Ac_g (3Acg (3Acg (3Acg |"^b-VI" (3_A_df (3G"^V"cf (3A=df (3Gdf | %12
"^IV" (3Gc_e (3Gce"^b-III" (3_Acd (3Fcd |"^III" (3Gc_e (3Gce (3G=Bd (3GBd | %14
"^(III)""^C" (3c_eg (3ceg (3c=eg (3ceg |"^b-IV" (3_df_a (3dfa (3dfa (3=Bfa | %16
"^III" (3ceg (3ceg (3ceg (3ceg |"^b-IV" (3_df_a (3dfa (3dfa (3=Bfa | %18
"^III" (3ceg (3ceg"^(II)" (3c_e^f (3cef |"^(III)" (3cda (3cda"^b-III" (3Bdg (3Bdg | %20
"^IV" (3_Ac_e (3Ace"^III" (3GB=e (3GBe | (3DGB (3DGB (3DG"^(II)"A (3D^FA | %22
"^b-III""^D" (3GBd (3Bdg"^VI" (3dgb (3dgb |"^VII" (3dac' (3dac' (3dac' (3dac' | %24
"^b-VI" (3dgb (3dgb (3_dgb (3=dgb |"^(V)" (3ega (3ega (3ega (3ega | %26
"^b-X" (3fad' (3fad'"^VI" (3egb (3df=b |"^b-V""^E" (3^c'^ce (3ace"^IV" (3bce"^(III)" (3gce | A,8 | %29
 (3z fa (3d'fa"^F" (3f'fa (3d'fa | A,8 |"^VI" (3EBG (3_dBe (3dge"^IX" (3bg^c' | A,4 A,4 | %33
"^IX" (3d^gf"^X" (3=b_ad' (3b"^XIII"f'd'"^G#" (3^g'"^F"f'"^B"=b' | A,4 A,4 | %35
"^VI" (3^c'gb"^III" (3eg^c (3e"^II"Bc (3GBE | (3G"^I"^CE (3B,CG, (3B,EG"^III""^F" (3DGB | %37
 ^C4 (3EGB (3DGB |"^(III)" _D4 (3_EGB (3=DGB | ^C4"^b-III" (3DFd (3DFd | %40
"^VI" (3EBd (3EBd (3EA_d (3EAd |"^(VI)""^G" (3FAd (3Adf (3Adf (3Adf | (3Aeg (3Aeg (3Aeg (3Aeg | %43
 (3Adf (3Adf (3Bdg (3Bdg |"^V" (3Acf (3Acf"^III" (3GBe"^b-V" (3ceb | (3cfa (3cfa (3cfa (3cfa | %46
"^V" (3cgb (3cgb (3cgb (3cgb |"^b-V" (3cfa (3cfa (3^cga (3dfa | %48
"^V" (3ega (3ega"^b_X" (3fad' (3fad' |"^VI" (3^dgb (3dgb"^V" (3^cga (3cga | %50
"^V""^H" (3dfa (3dfa (3d^fa (3dga |"^b_VI" (3^dgb (3dgb (3dgb (3^cgb | %52
"^V" (3d^fa (3dga (3dga (3dga |"^b_VI" (3_egb (3egb (3dgb (3^cgb | %54
"^V" (3d^fa"^I" (3dfa (3dgb (3dgb |"^b_V" (3cgb (3cgb (3cgb (3cfa | %56
"^VIII" (3Bfa (3Beg"^VII" (3Aeg"^VI" (3Adf |"^b_V" (3Gde (3Gde"^V" (3Ade (3Bde | %58
"^VI" (3Adf (3Adf"^b_V" (3G^ce (3Gce |"^VI""^J" (3FAd (3Adf (3Adf (3Adf | (3Aeg (3Aeg (3Aeg (3Aeg | %61
"^(VI)" (3Afd"^b_X" (3afd' (3a"^XII\nF"f'd'"^A" (3a'"^F"f'd' | A,6"^b_VI" ^c2 | %63
 (3Afd"^b_X" (3afd' (3a"^XIII\nF"f'd'"^A" (3a'"^F"f'd' | A,6"^I" _d2 | %65
"^(I)""^K" (3[Fd]Ad (3fdA (3z FA (3dAF | z8 | z4"^II" [FAd]4 | [FAd]4 z4 |] %69
V:2
 x8 | x8 | x8 | x8 | x8 | x8 | x8 | x8 | x8 | x8 | x8 | x8 | x8 | x8 | x8 | x8 | x8 | x8 | x8 | %19
 x8 | x8 | x8 | x8 | x8 | x8 | x8 | x8 | x8 | x8 | x8 | x8 | x8 | x8 | x8 | x8 | x8 | x8 | %37
 x4 E2 D2 | x4 _E2 D2 | x8 | x8 | x8 | x8 | x8 | x8 | x8 | x8 | x8 | x8 | x8 | x8 | x8 | x8 | x8 | %54
 x8 | x8 | x8 | x8 | x8 | x8 | x8 | x8 | x6 A,>A, | x8 | x6 A,>A, | x8 | x8 | x8 | x8 |] %69
V:3
"^II" D8 | C8 |"^I" B,4"^II" G,4 | A,4 A,4 | D,6"^II" [DA]>A |"^(II)" [_DA]6 [A,A]>A | %6
 [D,A]4 [G,B]4 | [CA]4"^I" [CG]2 [Ec]2 |"^I" [F,F]8 | F,6"^b-I" [F_A]>A | [_E_A]6 [EA]>A | %11
"^I" [_D_A]2 [CA]2 [=B,A]2"^II" [B,G]2 | [CG]4"^b-III" [F,_A]2 [_A,F]2 |"^III" [G,G]4 [G,G]4 | %14
"^(III)" [Cc]6 [Cc]2 | _d6 =B2 | [Dc]6 [Cc]2 |"^(I)" _d6 _c2 | [Cc]4"^III" [A,c]4 | %19
 [^F,c]4 [G,B]4 |"^(III)" [C_A]4 [^CG]4 | [D,D]4 [D,D]4 |"^V" G,6 [Gd]>d |"^IV" [^Fd]6 [_Gd]>d | %24
"^V" [Gd]4 [E^c]2 [Dd]2 |"^IV" [^Ce]6 [_De]2 |"^B-V" [Df]4 [G,e]2 [^G,d]2 |"^IV" _d4 z4 | %28
 (3z"^b-V" ^ce (3Ace (3_Bce (3Gce | A,8 | (3z"^VI" FA (3dFA (3fFA (3dFA | A,4 A,4 | %32
 (3F"^b-VII"dA (3fd"^b-X"a (3fd'a"^F" (3f'd'a | A,4 A,4 | (3G"^XI"^cB (3ecg (3e"^XI"bg (3^c'be' | %35
 z8 | z8 | (3z"^V" GA (3BAG z4 | (3z"^(V)" GA (3BAG z4 | (3z GA (3BAG z4 | G,4 A,4 | %41
 D,6"^II" [DA]>A | [^CA]6 [CA]>A | [D,A]4 [G,B]4 |"^(II)" [CA]4 [CG]2 [Ec]2 | [F,F]6 [Fc]>c | %46
 [Ec]6 [Ec]>c |"^(I)" [Fc]4"^b_II" [E^c]2"^II" [Dd]2 | [^Ce]4"^III" [Df]4 |"^IV" [G,_e]4 [A,_d]4 | %50
"^(IV)" [D,d]6"^III" [Dd]2 | _e6"^II" _d2 |"^III" [D,d]6 [Dd]2 |"^(III)" d6"^II" ^c2 | %54
"^III" [Dd]4 [G,d]4 |"^II" [D,c]6 [Dc]2 |"^(II)" [DB]2"^b_II" [EB]2 [^CA]2 [DA]2 | %57
"^I" [B,G]4"^II" [A,A]2 [G,B]2 | [A,A]4 [A,A]4 | [D,D]6"^IV" A,>A, | [A,_D]6 A,>A, | %61
 [D,A,]6"^XII" A,>A, |"^XII" (3^c'e'"^IX"b (3c'gb"^VII" (3egB- (3BAG | [D,A,]6 A,>A, | %64
"^XII" (3^c'e'"^IX"b (3_d'gb"^VII" (3egB- (3BAG |"^(II)" D,4 D4 | (3A,DF (3AFD (3A,DA, (3F,A,F, | %67
 D,4 [D,A,D]4 | [D,A,D]4 z4 |] %69
V:4
 x8 | x8 | x8 | x8 | x8 | x8 | x8 | x8 | x8 | x8 | x8 | x8 | x8 | x8 | x8 | C2 F2 _A2 F2 | x8 | %17
 C2 F2 _A2 F2 | x8 | x8 | x8 | x8 | x8 | x8 | x8 | x8 | x8 | A,8 | x8 | x8 | x8 | x8 | x8 | x8 | %34
 x8 | x8 | x8 | A,8 | A,8 | A,4 B,4 | x8 | x8 | x8 | x8 | x8 | x8 | x8 | x8 | x8 | x8 | x8 | %51
 D2 G2 B2 G2 | x8 | D2 G2 B2 G2 | x8 | x8 | x8 | x8 | x8 | x8 | x8 | x8 | x8 | x8 | x8 | x8 | %66
 A,4 x4 | x8 | x8 |] %69

